X:242
T:no name
R:jig
Z:id:hn-jig-242
M:6/8
K:G
~G3 ~g3|edB dBA|~G3 BAG|AFD cBA|
GBd gag|edB dBA|EFG ABc|BGF G3:|
|:dBG dBG|ede def|gba gdB|~c3 dBc|
dge dBG|EFG AFD|EFG Adc|BGF G3:|

